source/img/sedona-header-background-desktop.svg

<svg width="460" height="81" viewBox="0 0 460 81" fill="none" xmlns="http://www.w3.org/2000/svg">
<path d="M44.5 22.5999C40.9 19.5999 36.4 17.5999 31.6 17.5999C28 17.5999 23.2999 19.6999 23.2999 23.8999C23.2999 28.2999 28.6 29.9999 31.9 30.9999L36.9 32.4999C47.2999 35.5999 55.4 40.7999 55.4 52.8999C55.4 60.2999 53.6 67.9999 47.7 72.9999C41.7999 77.9999 34 79.9999 26.5 79.9999C17.1 79.9999 7.79995 76.7999 0.199951 71.4999L8.29995 55.9999C13.2 60.2999 18.9 63.6999 25.6 63.6999C30.2 63.6999 35 61.3999 35 56.1999C35 50.6999 27.4 48.8999 23.2 47.6999C11 44.0999 2.99995 40.9999 2.99995 26.4999C2.99995 11.2999 13.7999 1.3999 28.7999 1.3999C36.2999 1.3999 45.6 3.79991 52.2 7.59991L44.5 22.5999Z" fill="white"/>
<path d="M91.7999 19.7999V32.2999H113.7V48.7999H91.7999V61.6999H115V78.1999H72.3999V3.3999H115V19.8999L91.7999 19.7999Z" fill="white"/>
<path d="M129.4 3.3999H157C177.8 3.3999 195 19.7999 195 40.7999C195 61.7999 177.7 78.1999 157 78.1999H129.4V3.3999ZM148.9 61.6999H153.3C164.9 61.6999 174.8 55.2999 174.8 40.7999C174.8 27.3999 166 19.8999 153.5 19.8999H148.9V61.6999Z" fill="white"/>
<path d="M286.9 39.3999C286.9 63.5999 269.5 80.6999 245.5 80.6999C221.5 80.6999 204.1 63.5999 204.1 39.3999C204.1 16.7999 224 0.899902 245.5 0.899902C267 0.899902 286.9 16.7999 286.9 39.3999ZM224.3 39.4999C224.3 52.3999 233.8 61.7999 245.4 61.7999C257 61.7999 266.5 52.3999 266.5 39.4999C266.5 29.1999 257 19.6999 245.4 19.6999C233.9 19.6999 224.3 29.1999 224.3 39.4999Z" fill="white"/>
<path d="M297.2 3.3999H316.7L352.3 49.1999H352.5V3.3999H372V78.1999H352.5L316.9 32.2999H316.7V78.1999H297.2V3.3999Z" fill="white"/>
<path d="M407.3 65.1999L402.1 78.1999H381.5L410.3 3.3999H431.5L459.7 78.1999H439L434.1 65.1999H407.3ZM420.9 26.4999H420.7L412.7 50.2999H428.9L420.9 26.4999Z" fill="white"/>
</svg>

<svg width="460" height="81" fill="none" xmlns="http://www.w3.org/2000/svg"><path d="M44.5 22.6c-3.6-3-8.1-5-12.9-5-3.6 0-8.3 2.1-8.3 6.3 0 4.4 5.3 6.1 8.6 7.1l5 1.5c10.4 3.1 18.5 8.3 18.5 20.4 0 7.4-1.8 15.1-7.7 20.1-5.9 5-13.7 7-21.2 7-9.4 0-18.7-3.2-26.3-8.5L8.3 56c4.9 4.3 10.6 7.7 17.3 7.7 4.6 0 9.4-2.3 9.4-7.5 0-5.5-7.6-7.3-11.8-8.5C11 44.1 3 41 3 26.5 3 11.3 13.8 1.4 28.8 1.4c7.5 0 16.8 2.4 23.4 6.2l-7.7 15zM91.8 19.8v12.5h21.9v16.5H91.8v12.9H115v16.5H72.4V3.4H115v16.5l-23.2-.1zM129.4 3.4H157c20.8 0 38 16.4 38 37.4s-17.3 37.4-38 37.4h-27.6V3.4zm19.5 58.3h4.4c11.6 0 21.5-6.4 21.5-20.9 0-13.4-8.8-20.9-21.3-20.9h-4.6v41.8zM286.9 39.4c0 24.2-17.4 41.3-41.4 41.3s-41.4-17.1-41.4-41.3C204.1 16.8 224 .9 245.5.9s41.4 15.9 41.4 38.5zm-62.6.1c0 12.9 9.5 22.3 21.1 22.3 11.6 0 21.1-9.4 21.1-22.3 0-10.3-9.5-19.8-21.1-19.8-11.5 0-21.1 9.5-21.1 19.8zM297.2 3.4h19.5l35.6 45.8h.2V3.4H372v74.8h-19.5l-35.6-45.9h-.2v45.9h-19.5V3.4zM407.3 65.2l-5.2 13h-20.6l28.8-74.8h21.2l28.2 74.8H439l-4.9-13h-26.8zm13.6-38.7h-.2l-8 23.8h16.2l-8-23.8z" fill="#fff"/></svg>
